public/img/team-front-mask.svg

<svg width="272" height="50" viewBox="0 0 272 50" fill="none" xmlns="http://www.w3.org/2000/svg">
<path fill-rule="evenodd" clip-rule="evenodd" d="M-83.6641 8.61859C-87.6048 13.6192 -91.256 18.692 -94.5943 23.7393L2.98369 -43.3525C1.69103 -43.3081 0.402298 -43.2744 -0.884711 -43.2408C-2.9855 -43.186 -5.08177 -43.1313 -7.18327 -43.0299L-83.6641 8.61859ZM-72.1703 -4.8166L-18.6135 -41.7613C-24.4469 -40.6232 -30.4478 -38.525 -36.8108 -34.5349C-49.8681 -26.347 -61.7543 -16.0235 -72.1703 -4.8166ZM10.5825 -43.813L-101.258 34.4711C-103.205 37.8006 -105.117 41.1779 -106.954 44.5709L26.189 -47.2675C20.7811 -45.2498 15.6209 -44.2992 10.5825 -43.813ZM59.1641 -70.0128L120.673 -112.44C118.68 -112.298 116.573 -111.981 114.345 -111.475C98.8071 -107.94 84.4155 -94.119 69.6081 -79.8985C66.156 -76.5833 62.6812 -73.2462 59.1641 -70.0128ZM128.155 -112.108L-110.784 51.8964C-112.733 55.7715 -114.547 59.637 -116.167 63.4453L131.79 -111.198C130.636 -111.581 129.425 -111.886 128.155 -112.108ZM135.888 -109.397L-118.945 70.461C-119.599 72.2546 -120.199 74.028 -120.739 75.7758L141.248 -105.355C139.652 -106.926 137.872 -108.291 135.888 -109.397ZM142.851 -103.64L-122.455 82.1503C-123.038 84.7245 -123.458 87.223 -123.693 89.6263L147.198 -97.1953C145.957 -99.5304 144.517 -101.705 142.851 -103.64ZM150.052 -90.6587L-123.905 94.3482C-123.872 97.0937 -123.541 99.6804 -122.87 102.074L151.373 -86.4879C150.979 -87.8961 150.54 -89.2904 150.052 -90.6587ZM152.106 -83.6395L-120.667 107.292C-120.614 107.381 -120.561 107.47 -120.507 107.558C-119.733 108.821 -118.834 109.972 -117.82 111.019L153.487 -76.1206C153.444 -76.5618 153.389 -76.9987 153.321 -77.431C152.995 -79.4882 152.595 -81.57 152.106 -83.6395ZM153.53 -71.7193L-115.674 112.95C-113.634 114.552 -111.261 115.844 -108.612 116.86L152.991 -67.6029C153.253 -69.0041 153.436 -70.3775 153.53 -71.7193ZM151.686 -62.2943L-103.873 118.321C-102.356 118.689 -100.774 118.989 -99.1357 119.224L147.542 -51.303C149.191 -55.0681 150.627 -58.7494 151.686 -62.2943ZM145.547 -46.9127L-92.7048 119.821C-89.7785 119.959 -86.7231 119.939 -83.574 119.781L139.181 -33.8803C139.658 -34.8472 140.137 -35.8138 140.616 -36.7793C142.303 -40.1823 143.983 -43.5718 145.547 -46.9127ZM133.658 -22.2045L-75.62 119.124C-70.56 118.554 -65.3463 117.699 -60.1088 116.636L130.52 -14.4353C131.443 -16.9919 132.505 -19.5871 133.658 -22.2045ZM128.912 -9.35359L-46.0112 113.086C-35.1145 109.161 -24.0825 101.234 -12.9682 93.2485C-1.57062 85.0592 9.91342 76.8078 21.4267 72.7455L127.204 -0.216353C127.574 -3.26608 128.107 -6.31477 128.912 -9.35359ZM126.676 5.44255L32.593 70.02C35.8956 69.5514 39.1238 69.3714 42.296 69.3743L126.411 10.1298C126.484 8.56935 126.568 7.00653 126.676 5.44255ZM125.943 19.9778L54.889 70.1269C56.1219 70.2497 57.3497 70.379 58.5736 70.508C59.7642 70.6334 60.9512 70.7585 62.1355 70.8767L125.276 27.2228C125.589 24.823 125.792 22.4064 125.943 19.9778ZM124.38 32.5233L68.8204 71.4306C72.7875 71.6657 76.7489 71.6868 80.7469 71.2498L120.508 43.8281C122.354 40.1252 123.564 36.3504 124.38 32.5233Z" fill="white"/>
<path fill-rule="evenodd" clip-rule="evenodd" d="M103.564 -1.02824C99.6235 3.97237 95.9723 9.04514 92.634 14.0925L190.212 -52.9993C188.919 -52.9549 187.631 -52.9212 186.344 -52.8877C184.243 -52.8328 182.146 -52.7781 180.045 -52.6767L103.564 -1.02824ZM115.058 -14.4634L168.615 -51.4081C162.781 -50.27 156.78 -48.1718 150.417 -44.1818C137.36 -35.9938 125.474 -25.6703 115.058 -14.4634ZM197.811 -53.4598L85.9707 24.8243C84.0237 28.1538 82.1114 31.5311 80.2739 34.9241L213.417 -56.9143C208.009 -54.8966 202.849 -53.9461 197.811 -53.4598ZM246.392 -79.6596L307.902 -122.087C305.909 -121.944 303.801 -121.628 301.573 -121.121C286.035 -117.587 271.644 -103.766 256.836 -89.5454C253.384 -86.2301 249.91 -82.8931 246.392 -79.6596ZM315.383 -121.755L76.444 42.2496C74.4952 46.1247 72.6811 49.9902 71.0612 53.7984L319.018 -120.844C317.864 -121.227 316.654 -121.533 315.383 -121.755ZM323.116 -119.044L68.2829 60.8142C67.629 62.6078 67.0289 64.3811 66.4893 66.129L328.476 -115.002C326.88 -116.573 325.1 -117.938 323.116 -119.044ZM330.079 -113.286L64.7733 72.5034C64.1906 75.0777 63.77 77.5762 63.5356 79.9795L334.426 -106.842C333.185 -109.177 331.746 -111.352 330.079 -113.286ZM337.28 -100.306L63.323 84.7014C63.3564 87.4469 63.687 90.0335 64.358 92.4271L338.601 -96.1347C338.207 -97.543 337.768 -98.9372 337.28 -100.306ZM339.335 -93.2863L66.5613 97.6454C66.614 97.7346 66.6674 97.8233 66.7216 97.9116C67.4953 99.174 68.3945 100.326 69.4085 101.372L340.716 -85.7675C340.673 -86.2086 340.617 -86.6455 340.549 -87.0779C340.224 -89.135 339.823 -91.2169 339.335 -93.2863ZM340.758 -81.3661L71.5542 103.303C73.5938 104.906 75.9669 106.198 78.6163 107.213L340.22 -77.2497C340.481 -78.6509 340.664 -80.0243 340.758 -81.3661ZM338.914 -71.9411L83.3556 108.674C84.8723 109.042 86.4539 109.342 88.0925 109.578L334.77 -60.9498C336.419 -64.7149 337.855 -68.3962 338.914 -71.9411ZM332.776 -56.5595L94.5235 110.175C97.4498 110.312 100.505 110.292 103.654 110.134L326.409 -43.5271C326.886 -44.494 327.365 -45.4606 327.844 -46.4262C329.531 -49.8292 331.211 -53.2186 332.776 -56.5595ZM320.886 -31.8513L111.608 109.477C116.668 108.907 121.882 108.052 127.12 106.989L317.749 -24.0821C318.671 -26.6387 319.734 -29.2339 320.886 -31.8513ZM316.14 -19.0004L141.217 103.44C152.114 99.514 163.146 91.5874 174.26 83.6017C185.658 75.4124 197.142 67.161 208.655 63.0987L314.432 -9.86318C314.802 -12.9129 315.335 -15.9616 316.14 -19.0004ZM313.905 -4.20427L219.821 60.3732C223.124 59.9045 226.352 59.7245 229.524 59.7274L313.639 0.482981C313.713 -1.07747 313.796 -2.64028 313.905 -4.20427ZM313.171 10.331L242.117 60.48C243.35 60.6029 244.578 60.7322 245.802 60.8612C246.992 60.9866 248.179 61.1116 249.364 61.2299L312.505 17.576C312.817 15.1761 313.02 12.7596 313.171 10.331ZM311.608 22.8765L256.049 61.7838C260.016 62.0189 263.977 62.04 267.975 61.603L307.737 34.1812C309.582 30.4783 310.792 26.7036 311.608 22.8765Z" fill="white"/>
</svg>

<svg width="272" height="50" fill="none" xmlns="http://www.w3.org/2000/svg"><path fill-rule="evenodd" clip-rule="evenodd" d="M-83.664 8.619c-3.94 5-7.592 10.073-10.93 15.12L2.984-43.353c-1.293.045-2.582.079-3.869.112-2.1.055-4.197.11-6.298.211L-83.664 8.62zM-72.17-4.817l53.556-36.944c-5.833 1.138-11.834 3.236-18.197 7.226-13.057 8.188-24.943 18.511-35.36 29.718zm82.752-38.996l-111.84 78.284a352.894 352.894 0 00-5.696 10.1L26.189-47.268c-5.408 2.018-10.568 2.969-15.607 3.455zm48.582-26.2l61.509-42.427c-1.993.142-4.1.459-6.328.965-15.538 3.535-29.93 17.356-44.737 31.576-3.452 3.316-6.927 6.653-10.444 9.886zm68.991-42.095L-110.784 51.896a200.476 200.476 0 00-5.383 11.55L131.79-111.199a25.418 25.418 0 00-3.635-.91zm7.733 2.711L-118.945 70.461a112.344 112.344 0 00-1.794 5.315l261.987-181.131a24.949 24.949 0 00-5.36-4.042zm6.963 5.757L-122.455 82.15c-.583 2.575-1.003 5.073-1.238 7.476L147.198-97.195c-1.241-2.335-2.681-4.51-4.347-6.445zm7.201 12.981L-123.905 94.348c.033 2.746.364 5.332 1.035 7.726L151.373-86.488a62.779 62.779 0 00-1.321-4.17zm2.054 7.02l-272.773 190.931.16.266a19.932 19.932 0 002.687 3.461l271.307-187.14a22.441 22.441 0 00-.166-1.31 84.674 84.674 0 00-1.215-6.209zm1.424 11.92L-115.674 112.95c2.04 1.602 4.413 2.894 7.062 3.91L152.991-67.603c.262-1.401.445-2.775.539-4.116zm-1.844 9.425L-103.873 118.32a50.58 50.58 0 004.737.903L147.542-51.303c1.649-3.765 3.085-7.446 4.144-10.991zm-6.139 15.381L-92.705 119.821c2.927.138 5.982.118 9.131-.04L139.181-33.88c.477-.967.956-1.934 1.435-2.9 1.687-3.402 3.367-6.792 4.931-10.133zm-11.889 24.708L-75.62 119.125c5.06-.57 10.274-1.425 15.511-2.488L130.52-14.435c.923-2.557 1.985-5.152 3.138-7.77zm-4.746 12.851l-174.923 122.44c10.897-3.925 21.929-11.852 33.043-19.837 11.397-8.19 22.881-16.441 34.395-20.503L127.204-.216c.37-3.05.903-6.099 1.708-9.138zm-2.236 14.797L32.593 70.02c3.303-.469 6.53-.649 9.703-.646l84.115-59.244c.073-1.56.157-3.123.265-4.687zm-.733 14.535L54.889 70.127c1.233.123 2.46.252 3.685.381 1.19.125 2.377.25 3.562.369l63.14-43.654c.313-2.4.516-4.817.667-7.245zm-1.563 12.545L68.82 71.431c3.968.235 7.929.256 11.927-.181l39.761-27.422c1.846-3.703 3.056-7.478 3.872-11.305z" fill="#fff"/><path fill-rule="evenodd" clip-rule="evenodd" d="M103.564-1.028a225.18 225.18 0 00-10.93 15.12l97.578-67.091c-1.293.044-2.581.078-3.868.111-2.101.055-4.198.11-6.299.211L103.564-1.028zm11.494-13.435l53.557-36.945c-5.834 1.138-11.835 3.236-18.198 7.226-13.057 8.188-24.943 18.512-35.359 29.719zm82.753-38.997L85.971 24.824a354.132 354.132 0 00-5.697 10.1l133.143-91.838c-5.408 2.017-10.568 2.968-15.606 3.454zm48.581-26.2l61.51-42.427a42.135 42.135 0 00-6.329.966c-15.538 3.534-29.929 17.355-44.737 31.576-3.452 3.315-6.926 6.652-10.444 9.885zm68.991-42.095L76.444 42.25c-1.949 3.875-3.763 7.74-5.383 11.548l247.957-174.642a25.385 25.385 0 00-3.635-.911zm7.733 2.711L68.283 60.814a111.953 111.953 0 00-1.794 5.315l261.987-181.131a24.949 24.949 0 00-5.36-4.042zm6.963 5.758L64.773 72.504c-.582 2.574-1.003 5.072-1.237 7.475l270.89-186.821c-1.241-2.335-2.68-4.51-4.347-6.444zm7.201 12.98L63.323 84.701c.033 2.746.364 5.333 1.035 7.726L338.601-96.135a62.868 62.868 0 00-1.321-4.171zm2.055 7.02L66.561 97.645l.16.267a19.898 19.898 0 002.688 3.46l271.307-187.14a22.464 22.464 0 00-.167-1.31 84.663 84.663 0 00-1.214-6.208zm1.423 11.92L71.554 103.303c2.04 1.603 4.413 2.895 7.062 3.91L340.22-77.25c.261-1.4.444-2.774.538-4.116zm-1.844 9.425L83.356 108.674c1.516.368 3.098.668 4.737.904L334.77-60.95c1.649-3.765 3.085-7.446 4.144-10.991zm-6.138 15.382L94.524 110.175c2.926.137 5.981.117 9.13-.041L326.409-43.527c.477-.967.956-1.934 1.435-2.9 1.687-3.402 3.367-6.792 4.932-10.133zm-11.89 24.708L111.608 109.477c5.06-.57 10.274-1.425 15.512-2.488L317.749-24.082c.922-2.557 1.985-5.152 3.137-7.77zm-4.746 12.85L141.217 103.44c10.897-3.926 21.929-11.853 33.043-19.838 11.398-8.19 22.882-16.441 34.395-20.503L314.432-9.863c.37-3.05.903-6.099 1.708-9.137zm-2.235 14.797l-94.084 64.577c3.303-.468 6.531-.648 9.703-.646L313.639.483c.074-1.56.157-3.123.266-4.687zm-.734 14.535L242.117 60.48c1.233.123 2.461.252 3.685.381 1.19.126 2.377.25 3.562.369l63.141-43.654c.312-2.4.515-4.816.666-7.245zm-1.563 12.546l-55.559 38.907c3.967.235 7.928.256 11.926-.181l39.762-27.422c1.845-3.703 3.055-7.477 3.871-11.304z" fill="#fff"/></svg>
